X:1
T:Title
%%score 1 2
L:1/8
Q:1/4=96
M:3/4
K:Bb
V:1 treble nm="Grand Piano, Soprano"
V:2 bass nm="Choir Pad, Fontana, Daniel B. Towner"
V:1
 [B,D]>[CE] [DF]3 [Fd] | [Ec]>[Fd] [DB]2 [B,D]2 | [DF]>[DB] [EA]3 [CE] | [FA]>[EG] [DF]4 | %4
w: By~Daniel~Brink~Towner,~1909 * * *||||
 [B,D]>[CE] [DF]3 [Fd] | [Ec]>[Fd] [DB]2 [B,D]2 | [DF]>[DB] [EA]3 [EF] | [EA]>[Ec] [DB]4 | %8
w: ||||
 [DB]>[DB] [GB]3 [Gc] | [GB]>[EG] [DF]2 [B,D]2 | [DF]>[DB] [EA]3 [Ec] | [EG]>[EA] [EG]2 [DF]2 | %12
w: ||||
 [DB]>[DB] [GB]3 [Gc] | [GB]>[EG] [DF]2 [DB]2 | [Fd]>[_Ad] [Ge]3 [Ec] | [EA]>[EF] [DB]4- | %16
w: ||||
 [DB]4 z2 |] %17
w: |
V:2
 z2 (3B,,D,F, B,2 | z2 (3B,,D,F, B,2 | z2 (3F,,A,,C, F,2 | z2 (3B,,D,F, B,,2 | z2 (3B,,D,F, B,2 | %5
 z2 (3B,,D,F, B,2 | z2 (3F,,A,,C, F,2 | z2 (3B,,D,F, B,,2 | [B,,F,]>[B,,F,] E,3 E, | %9
 E,>[E,B,] [B,,B,]2 [B,,F,]2 | [B,,B,]>[B,,B,] [F,C]3 [F,A,] | [F,A,]>[F,C] [B,,B,]2 [B,,B,]2 | %12
 [B,,F,]>[B,,F,] E,3 E, | E,>[E,B,] [B,,B,]2 [B,,F,]2 | [B,,B,]>[B,,B,] [E,B,]3 [E,G,] | %15
 F,>F, [B,,F,]4- | [B,,F,]4 z2 |] %17

